icons/StackOverflow-Light.svg

<svg xmlns="http://www.w3.org/2000/svg" width="256" height="256" fill="none" viewBox="0 0 256 256"><rect width="256" height="256" fill="#F4F2ED" rx="60"/><path fill="#BCBBBB" d="M183.541 206.378V157.73H205.162V228H43V157.73H64.6216V206.378H183.541Z"/><path fill="#F48024" d="M159.216 28L144.622 38.8108L198.135 110.703L212.73 99.8919L159.216 28ZM183.541 127.459L114.892 70.1622L126.243 56.6486L194.892 113.946L183.541 127.459ZM92.1892 110.162L173.27 148L180.838 131.784L99.7568 93.9459L92.1892 110.162ZM167.865 168.486L171.541 152.541L84.5136 134.432L80.8379 152.324L167.865 168.486V168.486ZM167.324 190.162H80.8379V173.946H167.324V190.162Z"/></svg>

<svg xmlns="http://www.w3.org/2000/svg" width="256" height="256" fill="none" viewBox="0 0 256 256"><rect width="256" height="256" fill="#F4F2ED" rx="60"/><path fill="#BCBBBB" d="M183.54 206.38v-48.65h21.62V228H43v-70.27h21.62v48.65z"/><path fill="#F48024" d="m159.22 28-14.6 10.81 53.51 71.9 14.6-10.82zm24.32 99.46-68.65-57.3 11.35-13.51 68.65 57.3zm-91.35-17.3L173.27 148l7.57-16.22-81.08-37.83zm75.68 58.33 3.67-15.95-87.03-18.1-3.67 17.88zm-.55 21.67H80.84v-16.21h86.48z"/></svg>
